alura/assets/api/cursos/fundamentos-ux-entendendo-experiencia-usuario.svg

<?xml version="1.0" encoding="UTF-8"?>
<svg width="49px" height="50px" viewBox="0 0 49 50" version="1.1" xmlns="http://www.w3.org/2000/svg" xmlns:xlink="http://www.w3.org/1999/xlink">
    <title>Group 9</title>
    <defs>
        <polygon id="path-1" points="0.2501 0.761 45.9891 0.761 45.9891 40.7384 0.2501 40.7384"></polygon>
        <polygon id="path-3" points="0 0.761 48.239 0.761 48.239 48.9998 0 48.9998"></polygon>
    </defs>
    <g id="Page-1" stroke="none" stroke-width="1" fill="none" fill-rule="evenodd">
        <g id="Group-9">
            <g id="Group-3" transform="translate(1.000000, 0.239000)">
                <mask id="mask-2" fill="white">
                    <use xlink:href="#path-1"></use>
                </mask>
                <g id="Clip-2"></g>
                <path d="M7.9501,40.7384 L45.7421,26.9804 C45.9051,25.8724 45.9881,24.7524 45.9891,23.6314 C45.9901,11.0014 35.7501,0.7604 23.1201,0.7604 C10.4901,0.7604 0.2501,11.0014 0.2501,23.6314 C0.2501,30.4384 3.2281,36.5484 7.9501,40.7384" id="Fill-1" fill="#00C8E2" mask="url(#mask-2)"></path>
            </g>
            <path d="M36.8651,4.8348 C33.1271,2.3558 28.7401,1.0358 24.2551,1.04177964 C13.8851,1.04177964 5.1351,7.9448 2.3301,17.4038 L36.8651,4.8348 Z" id="Fill-4" fill="#00DFFC"></path>
            <g id="Group-8" transform="translate(0.000000, 0.239000)">
                <mask id="mask-4" fill="white">
                    <use xlink:href="#path-3"></use>
                </mask>
                <g id="Clip-7"></g>
                <path d="M13.288,40.7658 C14.065,39.9898 15.057,39.3828 16.106,38.7428 C17.875,37.6608 19.856,36.4278 21.084,34.1198 C22.141,34.6708 23.189,34.9838 24.12,34.9838 C25.05,34.9838 26.097,34.6718 27.154,34.1208 C28.388,36.4308 30.37,37.6628 32.14,38.7448 C33.189,39.3868 34.18,39.9928 34.958,40.7668 C35.601,41.4108 36.033,42.0988 36.265,42.8218 C36.201,42.8488 36.132,42.8608 36.072,42.8998 C32.531,45.2538 28.373,46.5078 24.121,46.5008291 C19.796,46.5058 15.57,45.2058 11.995,42.7708 C12.232,42.0708 12.656,41.3978 13.288,40.7658 M15.611,22.7738 C15.611,16.8688 19.427,12.0648 24.119,12.0648 C28.811,12.0648 32.627,16.8688 32.627,22.7738 C32.627,28.4778 27.324,33.4828 24.119,33.4828 C20.914,33.4828 15.611,28.4768 15.611,22.7738 M24.12,0.7608 C10.82,0.7608 0,11.5808 0,24.8808 C0,38.1808 10.82,48.9998 24.12,48.9998 C28.889,48.9998 33.5,47.6098 37.455,44.9808 C37.924,44.6688 38.096,44.0988 37.942,43.5858 C37.942,43.5778 37.946,43.5678 37.945,43.5588 C37.82,42.1548 37.171,40.8578 36.017,39.7048 C35.112,38.8038 33.998,38.1228 32.922,37.4648 C31.219,36.4238 29.469,35.3388 28.431,33.3328 C31.411,31.2198 34.128,27.2868 34.128,22.7738 C34.128,16.0418 29.638,10.5648 24.12,10.5648 C18.602,10.5648 14.111,16.0408 14.111,22.7738 C14.111,27.2868 16.826,31.2178 19.806,33.3318 C18.774,35.3358 17.025,36.4208 15.323,37.4618 C14.245,38.1208 13.131,38.8028 12.227,39.7058 C11.603,40.3208 11.101,41.0488 10.75,41.8508 C5.731,37.8888 2.5,31.7568 2.5,24.8808 C2.5,12.9598 12.199,3.2608 24.12,3.2608 C36.041,3.2608 45.739,12.9598 45.739,24.8808 C45.739,25.9428 45.661,27.0078 45.509,28.0488 C45.409,28.7318 45.881,29.3668 46.564,29.4668 C47.244,29.5698 47.878,29.1018 47.98,28.4208 C47.981,28.4178 47.981,28.4148 47.982,28.4118 C48.152,27.2508 48.239,26.0628 48.239,24.8808 C48.239,11.5808 37.419,0.7608 24.12,0.7608" id="Fill-6" fill="#444444" mask="url(#mask-4)"></path>
            </g>
        </g>
    </g>
</svg>

<svg xmlns="http://www.w3.org/2000/svg" xmlns:xlink="http://www.w3.org/1999/xlink" viewBox="0 0 49 50"><defs><path id="a" d="M.25.761h45.74v39.977H.25z"/><path id="c" d="M0 .761h48.239V49H0z"/></defs><g fill="none" fill-rule="evenodd"><g transform="translate(1 .239)"><mask id="b" fill="#fff"><use xlink:href="#a"/></mask><path fill="#00C8E2" d="M7.95 40.738L45.742 26.98a23.16 23.16 0 00.247-3.349C45.99 11.001 35.75.761 23.12.761 10.49.76.25 11 .25 23.63c0 6.807 2.978 12.917 7.7 17.107" mask="url(#b)"/></g><path fill="#00DFFC" d="M36.865 4.835a22.761 22.761 0 00-12.61-3.793c-10.37 0-19.12 6.903-21.925 16.362l34.535-12.57z"/><g transform="translate(0 .239)"><mask id="d" fill="#fff"><use xlink:href="#c"/></mask><path fill="#444" d="M13.288 40.766c.777-.776 1.769-1.383 2.818-2.023 1.769-1.082 3.75-2.315 4.978-4.623 1.057.55 2.105.864 3.036.864.93 0 1.977-.312 3.034-.863 1.234 2.31 3.216 3.542 4.986 4.624 1.049.642 2.04 1.248 2.818 2.022.643.644 1.075 1.332 1.307 2.055-.064.027-.133.039-.193.078a21.524 21.524 0 01-11.951 3.6 21.496 21.496 0 01-12.126-3.73c.237-.7.661-1.372 1.293-2.004m2.323-17.992c0-5.905 3.816-10.71 8.508-10.71 4.692 0 8.508 4.805 8.508 10.71 0 5.704-5.303 10.709-8.508 10.709-3.205 0-8.508-5.006-8.508-10.71M24.12.762C10.82.76 0 11.58 0 24.88S10.82 49 24.12 49c4.769 0 9.38-1.39 13.335-4.02.469-.311.641-.881.487-1.394 0-.008.004-.018.003-.027-.125-1.404-.774-2.701-1.928-3.854-.905-.901-2.019-1.582-3.095-2.24-1.703-1.041-3.453-2.126-4.491-4.132 2.98-2.113 5.697-6.046 5.697-10.56 0-6.731-4.49-12.208-10.008-12.208-5.518 0-10.009 5.476-10.009 12.209 0 4.513 2.715 8.444 5.695 10.558-1.032 2.004-2.781 3.089-4.483 4.13-1.078.659-2.192 1.34-3.096 2.244a6.894 6.894 0 00-1.477 2.145C5.731 37.889 2.5 31.757 2.5 24.88c0-11.921 9.699-21.62 21.62-21.62 11.921 0 21.619 9.699 21.619 21.62 0 1.062-.078 2.127-.23 3.168a1.25 1.25 0 002.471.372l.002-.01c.17-1.16.257-2.348.257-3.53 0-13.3-10.82-24.12-24.119-24.12" mask="url(#d)"/></g></g></svg>
